public/img/icons/sprite/soprano_clef.svg

<?xml version="1.0" encoding="UTF-8" standalone="no"?>
<!-- Created with Inkscape (http://www.inkscape.org/) -->
<svg
   xmlns:dc="http://purl.org/dc/elements/1.1/"
   xmlns:cc="http://creativecommons.org/ns#"
   xmlns:rdf="http://www.w3.org/1999/02/22-rdf-syntax-ns#"
   xmlns:svg="http://www.w3.org/2000/svg"
   xmlns="http://www.w3.org/2000/svg"
   xmlns:sodipodi="http://sodipodi.sourceforge.net/DTD/sodipodi-0.dtd"
   xmlns:inkscape="http://www.inkscape.org/namespaces/inkscape"
   version="1.0"
   width="810"
   height="1200"
   id="svg1894"
   sodipodi:version="0.32"
   inkscape:version="0.46"
   sodipodi:docname="Soprano_clef_with_ref.svg"
   inkscape:output_extension="org.inkscape.output.svg.inkscape">
  <metadata
     id="metadata22">
    <rdf:RDF>
      <cc:Work
         rdf:about="">
        <dc:format>image/svg+xml</dc:format>
        <dc:type
           rdf:resource="http://purl.org/dc/dcmitype/StillImage" />
      </cc:Work>
    </rdf:RDF>
  </metadata>
  <sodipodi:namedview
     inkscape:window-height="883"
     inkscape:window-width="1271"
     inkscape:pageshadow="2"
     inkscape:pageopacity="0.0"
     guidetolerance="10.0"
     gridtolerance="10.0"
     objecttolerance="10.0"
     borderopacity="1.0"
     bordercolor="#666666"
     pagecolor="#ffffff"
     id="base"
     showgrid="false"
     inkscape:zoom="1.0842304"
     inkscape:cx="382.2557"
     inkscape:cy="413.61583"
     inkscape:window-x="24"
     inkscape:window-y="24"
     inkscape:current-layer="layer2" />
  <defs
     id="defs1896">
    <inkscape:perspective
       sodipodi:type="inkscape:persp3d"
       inkscape:vp_x="0 : 600 : 1"
       inkscape:vp_y="0 : 1000 : 0"
       inkscape:vp_z="810 : 600 : 1"
       inkscape:persp3d-origin="405 : 400 : 1"
       id="perspective24" />
    <style
       type="text/css"
       id="style6" />
    <style
       type="text/css"
       id="style2282" />
  </defs>
  <g
     inkscape:groupmode="layer"
     id="layer1"
     inkscape:label="staff"
     style="display:inline"
     sodipodi:insensitive="true">
    <g
       transform="translate(19.223193,196.55764)"
       id="g1934">
      <path
         d="M 4.2160405,395.78396 L 795.78395,395.78396"
         style="fill:none;fill-rule:evenodd;stroke:#131516;stroke-width:8.43207264"
         id="path11" />
      <path
         d="M 4.2160405,635.78396 L 795.78395,635.78396"
         style="fill:none;fill-rule:evenodd;stroke:#131516;stroke-width:8.43207264"
         id="path13" />
      <path
         d="M 4.2160405,515.78396 L 795.78395,515.78396"
         style="fill:none;fill-rule:evenodd;stroke:#131516;stroke-width:8.43207264"
         id="path15" />
      <path
         d="M 4.2160405,275.78396 L 795.78395,275.78396"
         style="fill:none;fill-rule:evenodd;stroke:#131516;stroke-width:8.43207264"
         id="path17" />
      <path
         d="M 4.2160405,155.78396 L 795.78395,155.78396"
         style="fill:none;fill-rule:evenodd;stroke:#131516;stroke-width:8.43207264"
         id="path19" />
    </g>
  </g>
  <g
     inkscape:groupmode="layer"
     id="layer2"
     inkscape:label="clef"
     style="display:inline">
    <path
       id="path2432"
       style="fill:#131516;stroke:#131516;stroke-width:0.60001558"
       d="M 103.85139,1068.1412 L 103.85139,607.72297 L 103.85139,597.54026 L 157.14449,597.54026 L 157.14449,1057.9585 L 157.14449,1068.1412 L 103.85139,1068.1412 z M 183.99139,1068.1412 L 183.99139,607.72297 L 183.99139,597.54026 L 201.02114,597.54026 L 201.02114,828.14872 C 209.43584,823.75618 218.05089,814.77143 226.46559,800.5955 C 235.08064,786.61923 242.29324,771.84432 247.90304,756.0711 C 253.51284,740.29788 256.51809,728.71754 256.91879,721.13042 C 259.52334,737.90195 263.73069,751.27923 269.34049,761.46194 C 275.15064,771.44499 281.36149,778.63279 288.57409,783.02533 C 295.78669,787.21821 302.79894,789.41448 310.01154,789.41448 C 327.84269,789.41448 339.06229,781.42804 343.87069,765.2555 C 348.67909,749.08296 351.08329,729.31652 351.08329,705.95619 C 351.08329,695.37415 350.88294,685.79042 350.28189,677.40466 C 349.68084,669.0189 348.47874,660.43348 346.27489,651.84805 C 344.27139,643.26263 340.86544,635.47585 336.05704,628.68738 C 331.04829,621.8989 324.63709,617.10704 316.62309,614.71111 C 309.41049,612.7145 302.19789,611.71619 295.18564,611.71619 C 288.77444,611.71619 283.36499,612.91416 279.15764,615.11043 C 274.74994,617.3067 272.34574,620.70094 271.94504,624.69416 C 272.94679,628.28806 275.35099,632.48094 279.55834,637.47246 C 283.76569,642.26433 286.57059,646.05789 288.17339,648.45382 C 289.77619,650.84975 290.57759,654.24399 290.57759,658.83619 C 290.57759,667.02229 287.77269,673.81076 282.16289,679.40127 C 276.55309,684.99178 269.14014,687.9867 259.72369,687.9867 C 250.50759,687.9867 242.89429,684.59246 237.28449,678.00365 C 231.67469,671.21517 228.66944,663.22873 228.26874,654.24399 C 229.07014,642.06467 233.47784,631.48263 241.29149,622.69755 C 249.30549,614.11213 259.12264,607.52331 270.94329,603.13077 C 282.76394,598.73823 294.58459,596.54196 306.60559,596.54196 C 320.22939,596.54196 333.25214,598.93789 345.67384,603.72975 C 358.29589,608.52162 369.51549,615.70941 379.13229,624.89382 C 388.94944,634.27789 396.76309,645.65856 402.37289,659.23551 C 407.98269,672.6128 410.78759,687.9867 410.78759,704.95788 C 410.78759,728.51788 406.37989,748.08466 397.76484,763.45855 C 388.94944,779.03211 377.72984,790.61245 364.10604,797.80024 C 350.28189,804.98804 335.65634,808.98126 320.22939,809.38058 C 304.20139,808.38228 290.77794,804.78838 280.15939,798.59889 L 258.92229,832.94058 L 280.15939,867.08261 C 294.78494,861.09278 309.21014,858.09787 323.23464,858.09787 C 341.06579,858.09787 356.49274,863.28905 369.91619,873.2721 C 383.13929,883.45481 393.35714,896.43278 400.36939,912.60532 C 407.18129,928.77786 410.78759,945.34972 410.78759,962.52057 C 410.78759,981.2887 406.58024,998.85887 398.16554,1015.0314 C 389.75084,1031.204 377.93019,1043.9823 362.70359,1053.7656 C 347.27664,1063.3494 329.84619,1068.1412 310.01154,1068.1412 C 286.97129,1067.1429 267.73769,1061.7521 252.31074,1051.769 C 236.88379,1041.9856 229.27049,1027.2107 229.27049,1007.8436 C 230.07189,998.45955 233.47784,991.27175 239.48834,985.88091 C 245.49884,980.2904 251.91004,977.49515 258.92229,976.89616 C 267.33699,976.89616 274.95029,979.89108 281.56184,985.88091 C 288.17339,991.67108 291.57934,999.05853 291.57934,1007.8436 C 291.57934,1011.2378 290.77794,1014.4324 289.17514,1017.4273 C 287.57234,1020.2226 285.36849,1023.6168 282.16289,1027.6101 C 278.95729,1031.4036 276.75344,1034.1989 275.55134,1035.9958 C 274.34924,1037.9924 273.34749,1040.1887 272.94679,1042.984 C 272.94679,1046.5779 275.15064,1049.5728 279.75869,1051.9687 C 284.16639,1054.3646 289.97654,1055.7623 296.98879,1056.3612 C 319.02729,1055.3629 333.65284,1045.9789 341.06579,1028.6084 C 348.27839,1010.8385 351.88469,989.07548 351.88469,962.52057 C 351.88469,939.55955 349.28014,919.39379 344.07104,902.22295 C 338.86194,884.85244 327.64234,876.26702 310.01154,876.26702 C 294.38424,876.26702 282.36324,882.85583 273.94854,896.43278 C 265.53384,909.81007 260.12439,925.58328 257.72019,943.75244 C 255.11564,928.37854 251.10864,913.60363 245.29849,899.42769 C 239.48834,885.0521 232.87679,872.47346 225.06314,861.69176 C 217.65019,851.10973 209.43584,842.52431 201.02114,836.53448 L 201.02114,1068.1412 L 183.99139,1068.1412 z" />
  </g>
  <g
     inkscape:groupmode="layer"
     id="layer3"
     inkscape:label="notes"
     style="display:inline">
    <path
       sodipodi:type="arc"
       style="fill:#ffffff;fill-opacity:1;stroke:none;stroke-width:0.5;stroke-miterlimit:4;stroke-dasharray:none;stroke-dashoffset:0;stroke-opacity:1"
       id="path3276"
       sodipodi:cx="656.68701"
       sodipodi:cy="471.37259"
       sodipodi:rx="108.83295"
       sodipodi:ry="108.83295"
       d="M 765.51996,471.37259 A 108.83295,108.83295 0 1 1 547.85406,471.37259 A 108.83295,108.83295 0 1 1 765.51996,471.37259 z"
       transform="matrix(0.8480015,0,0,0.8480015,42.632065,433.64796)" />
    <text
       xml:space="preserve"
       style="font-size:144px;font-style:normal;font-variant:normal;font-weight:normal;font-stretch:normal;text-align:start;line-height:100%;writing-mode:lr-tb;text-anchor:start;fill:#000000;fill-opacity:1;stroke:none;stroke-width:1px;stroke-linecap:butt;stroke-linejoin:miter;stroke-opacity:1;font-family:Sans;-inkscape-font-specification:Sans"
       x="511.35129"
       y="885.79059"
       id="text3278"
       sodipodi:linespacing="100%"><tspan
         sodipodi:role="line"
         id="tspan3280"
         x="511.35129"
         y="885.79059">C4</tspan></text>
  </g>
</svg>

<?xml version="1.0" encoding="utf-8"?>
<!-- Generator: Adobe Illustrator 16.0.0, SVG Export Plug-In . SVG Version: 6.00 Build 0)  -->
<!DOCTYPE svg PUBLIC "-//W3C//DTD SVG 1.1//EN" "http://www.w3.org/Graphics/SVG/1.1/DTD/svg11.dtd">
<svg version="1.1"
	 id="svg1894" xmlns:dc="http://purl.org/dc/elements/1.1/" xmlns:cc="http://creativecommons.org/ns#" xmlns:rdf="http://www.w3.org/1999/02/22-rdf-syntax-ns#" xmlns:svg="http://www.w3.org/2000/svg" xmlns:inkscape="http://www.inkscape.org/namespaces/inkscape" xmlns:sodipodi="http://sodipodi.sourceforge.net/DTD/sodipodi-0.dtd" inkscape:output_extension="org.inkscape.output.svg.inkscape" sodipodi:version="0.32" sodipodi:docname="Soprano_clef_with_ref.svg" inkscape:version="0.46"
	 xmlns="http://www.w3.org/2000/svg" xmlns:xlink="http://www.w3.org/1999/xlink" x="0px" y="0px" width="506.5px" height="1200px"
	 viewBox="0 0 506.5 1200" enable-background="new 0 0 506.5 1200" xml:space="preserve">
<sodipodi:namedview  inkscape:cy="413.61583" inkscape:cx="382.2557" inkscape:zoom="1.0842304" showgrid="false" pagecolor="#ffffff" bordercolor="#666666" guidetolerance="10.0" objecttolerance="10.0" gridtolerance="10.0" borderopacity="1.0" id="base" inkscape:current-layer="layer2" inkscape:window-y="24" inkscape:window-x="24" inkscape:pageopacity="0.0" inkscape:pageshadow="2" inkscape:window-height="883" inkscape:window-width="1271">
	</sodipodi:namedview>
<defs>
	
	
		<inkscape:perspective  inkscape:vp_z="810 : 600 : 1" inkscape:vp_y="0 : 1000 : 0" inkscape:vp_x="0 : 600 : 1" sodipodi:type="inkscape:persp3d" id="perspective24" inkscape:persp3d-origin="405 : 400 : 1">
		</inkscape:perspective>
</defs>
<g id="layer1" inkscape:label="staff" sodipodi:insensitive="true" inkscape:groupmode="layer">
	<g id="g1934" transform="translate(19.223193,196.55764)">
		<path id="path11" fill="none" stroke="#131516" stroke-width="8.4321" d="M4.216,395.784h455.061"/>
		<path id="path13" fill="none" stroke="#131516" stroke-width="8.4321" d="M4.216,635.784h455.061"/>
		<path id="path15" fill="none" stroke="#131516" stroke-width="8.4321" d="M4.216,515.784h455.061"/>
		<path id="path17" fill="none" stroke="#131516" stroke-width="8.4321" d="M4.216,275.784h455.061"/>
		<path id="path19" fill="none" stroke="#131516" stroke-width="8.4321" d="M4.216,155.784h455.061"/>
	</g>
</g>
<g id="layer2" inkscape:label="clef" inkscape:groupmode="layer">
	<path id="path2432" fill="#131516" stroke="#131516" stroke-width="0.6" d="M103.852,1068.142V607.723V597.54h53.293v460.419
		v10.183H103.852z M183.991,1068.142V607.723V597.54h17.03v230.608c8.415-4.393,17.03-13.377,25.445-27.553
		c8.615-13.977,15.828-28.751,21.437-44.524c5.61-15.773,8.615-27.354,9.016-34.94c2.604,16.771,6.812,30.148,12.421,40.331
		c5.81,9.983,12.021,17.171,19.234,21.563c7.212,4.192,14.225,6.389,21.438,6.389c17.831,0,29.051-7.986,33.859-24.158
		c4.808-16.173,7.212-35.939,7.212-59.3c0-10.582-0.2-20.166-0.801-28.552c-0.602-8.386-1.804-16.971-4.007-25.557
		c-2.004-8.585-5.41-16.372-10.219-23.16c-5.009-6.789-11.42-11.58-19.434-13.977c-7.213-1.996-14.425-2.995-21.438-2.995
		c-6.411,0-11.82,1.198-16.028,3.395c-4.408,2.196-6.812,5.591-7.213,9.584c1.002,3.594,3.406,7.786,7.614,12.778
		c4.207,4.792,7.012,8.585,8.615,10.981c1.603,2.396,2.404,5.79,2.404,10.382c0,8.187-2.805,14.975-8.415,20.565
		c-5.61,5.591-13.023,8.585-22.439,8.585c-9.216,0-16.829-3.394-22.439-9.982c-5.61-6.789-8.615-14.775-9.016-23.76
		c0.802-12.18,5.209-22.762,13.023-31.547c8.014-8.585,17.831-15.174,29.652-19.566s23.641-6.589,35.662-6.589
		c13.624,0,26.646,2.396,39.068,7.188c12.622,4.792,23.842,11.979,33.458,21.164c9.817,9.385,17.631,20.765,23.241,34.342
		c5.609,13.378,8.414,28.751,8.414,45.723c0,23.56-4.407,43.127-13.022,58.501c-8.815,15.573-20.035,27.153-33.658,34.341
		c-13.824,7.188-28.45,11.182-43.877,11.581c-16.028-0.999-29.452-4.593-40.07-10.782l-21.237,34.342l21.237,34.143
		c14.626-5.99,29.051-8.985,43.075-8.985c17.831,0,33.259,5.191,46.682,15.175c13.224,10.183,23.441,23.16,30.453,39.333
		c6.812,16.172,10.418,32.744,10.418,49.915c0,18.769-4.207,36.339-12.621,52.511c-8.415,16.173-20.236,28.951-35.463,38.734
		c-15.427,9.584-32.857,14.376-52.691,14.376c-23.041-0.999-42.274-6.39-57.701-16.372c-15.427-9.784-23.04-24.559-23.04-43.926
		c0.801-9.384,4.208-16.572,10.218-21.963c6.011-5.591,12.422-8.386,19.434-8.984c8.415,0,16.028,2.994,22.64,8.984
		c6.611,5.79,10.017,13.178,10.017,21.963c0,3.395-0.801,6.589-2.404,9.584c-1.603,2.795-3.807,6.189-7.012,10.183
		c-3.206,3.793-5.41,6.589-6.612,8.386c-1.202,1.996-2.204,4.192-2.604,6.988c0,3.594,2.204,6.588,6.812,8.984
		c4.408,2.396,10.218,3.794,17.23,4.393c22.039-0.998,36.664-10.383,44.077-27.753c7.213-17.77,10.819-39.533,10.819-66.088
		c0-22.961-2.604-43.127-7.813-60.298c-5.209-17.37-16.429-25.956-34.06-25.956c-15.627,0-27.648,6.589-36.063,20.166
		c-8.415,13.378-13.824,29.15-16.229,47.319c-2.604-15.373-6.612-30.148-12.422-44.324c-5.81-14.376-12.421-26.954-20.235-37.736
		c-7.413-10.582-15.627-19.167-24.042-25.157v231.607H183.991z"/>
</g>
</svg>
